X:525
T: Der Kirchenruber Peter Paulus (229b), S. 493
N: T0413
O: Luxemburg
S: Singendes Volk, Esch-Alzette, 1937 posth.]
N: Reuland, hhh Franz Deitz, 17.12.1911
R: Berufslied]
M: 3/4
L: 1/16
K: G
G2A2 | B2B2B2B2c2A2 | A2G2G4
G2A2 | B4B2B2c2A2 | A2G2G4z2
G2 | FAA2A4z2A2 | G2A2B4z4 |
(3G4B2(3d2c2B2(3c2B2A2 | G4z4

@@@ Tune index: 8579
